!!!!SEGMENT: pl-kozmzk--mzk-m-346--001-043_walczynski-franciszek--cantantibus-organis-op-10-43-allegretto.krn
!!!cenid: 18xx:2838
!!!COM: Walczyński, Franciszek
!!!COM-rismID: pe30021989
!!!CDT: ~1852-1937
!!!CNT: Polish
!!!GTL: Cantantibus organis op. 10
!!!OTL: 43. Allegretto
!!!OMV: 043
!!!PDT: 1898
!!!AGN: Secular
!!!SMS-siglum: PL-KOZmzk
!!!SMS-shelfmark: mzk/m/346
!!!SMS-shelfwork: 001-043 G
!!!SMS-variant:
!!!SMS-altvar:
!!!NIFC-rismSourceID: 1001099615
!!!NIFC-rismChildID: 1001109607
!!!NIFC-islandoraID: pl-kozmzk:7453
!!!URL-pdf-islandora: https://repozytorium.nifc.pl/islandora/object/pl-kozmzk%3A7453/datastream/PDF/view
!!!URL-scan: https://polish.musicsources.pl/pl/lokalizacje/galeria/druki-muzyczne/7581 @EN{Scan on Polish Music Sources Website} @PL{Skany w portalu Dziedzictwo Muzyki Polskiej w otwartym dostępie}
!!!IIIF:
!!!ONB-nifc:
!!!AIN: 1 organ
!!!key:
**kern	**kern	**dynam
*part1	*part1	*part1
*staff2	*staff1	*
*Iorgan	*Iorgan	*
*I"Organo	*I"Organo	*
*clefF4	*clefG2	*
*k[b-e-]	*k[b-e-]	*
*g:	*g:	*
*M3/4	*M3/4	*
=1	=1	=1
!!LO:TX:a:B:t=Allegretto.
2.r	(8g\L	p
.	8a\	.
.	8b-\	.
.	8dd\	.
.	8ee-\	.
.	8dd\J	.
=2	=2	=2
8r>	2cc#X\	.
(8b->\L	.	.
8a>\	.	.
8g>\J	.	.
4f#X>\	8dd/L	.
.	8ccn\J	.
=3	=3	=3
8g>\L	8b-/L	.
8fn>\	8bn/	.
8e->\	8cc/	.
8d>\J	8b-X/	.
4c#X>\	8a/	.
.	8g/J	.
=4	=4	=4
8d\L	2f#X/	.
8e-\	.	.
8d\	.	<
8c\	.	.
8B-\	8dd\L	.
8A\J)	8cc\J)	[[
=5	=5	=5
(8G\L	(8b-\L	f
8A\J	8a\	.
4B-\	8g\	.
.	8dd\	.
4Bn\	8gg\	.
.	8ff\J	.
=6	=6	=6
8c\L	8ee-\L	.
8d\J	8dd\	.
2e-\	8cc\	.
.	8b-\	.
.	8a\	.
.	8g\J	.
=7	=7	=7
8d\L	8b-/L	>
8c\	8a/	.
8B-\	8g/	.
8d\J	8b-/	.
8c\L	8a/	.
8A\J	8f#X/J	.
=8	=8	=8
8B-\L	4g/)	]
8c\	.	.
8B-\	4r	.
8A\	.	.
8G\	4r	.
8B-\J)	.	.
=9	=9	=9
!!LO:LB:g=original
!	!	!LO:DY:b=2:t=pf
(8A\L	2.r	p
8F#X\	.	.
8D\	.	.
8E-\	.	.
8D\	.	.
8C\J	.	.
=10	=10	=10
!	!	!LO:DY:t=pf
4BB-/	8dd/L	p
.	8b-/	.
2BBn/	8g/	.
.	8a-X/	.
.	8g/	.
.	8f/J	.
=11	=11	=11
8C/L	8e-/L	.
8D/J	8d/	.
4E-\	8c/	.
.	8d/	.
4En\)	8c/	.
.	8B-/J	.
=12	=12	=12
(8F\L	(>8A/L	.
8G\	8B-/	.
8A\	8c/	.
8G\J	8e-/	.
4F#X\	8d/	.
.	8c/J	.
=13	=13	=13
8G\L	8B-/L	.
8A\	8c/	.
8B-\	8d/	.
8A\J	8f/	.
4G#X\	8en/	.
.	8d/J	.
=14	=14	=14
8A\L	8c#X/L	f
8Bn\	8d/	.
8c#X\	8en/	.
8B-X\	8g/	.
8A\	8f/	.
8G\J	8e/J	.
=15	=15	=15
4F#X\	8d/L	.
.	8e-X/	.
4D\	8d/	.
.	8c/	.
8En\L	8B-/	.
8F#\J)	8A/J	.
=16	=16	=16
(8G\L	8B-/)	p
8A\	8r	.
8B-\	4r	.
8d\	.	.
8e-\	4r	.
8d\J	.	.
=17	=17	=17
!!LO:LB:g=original
4c#X\	8r	.
.	(8b-/L	p
4A\	8a/	.
.	8g/	.
8Bn\L	8f/	.
8c#\J	8en/J	.
=18	=18	=18
8d\L	8f/L	.
8cn\	8f#X/	.
8B-\	8g/	.
8F#X\	8a/	.
8G\	8b-/	.
8Fn\J	8bn/J	.
=19	=19	=19
8E-/L	8cc\L	f
8D/	8dd\	.
8BBn/	8ff\	.
8C/J	8ee-\	>
4E-\	8cc\	.
.	8a\J	.
=20	=20	=20
8D\L	8b-/L	.
8c\	8a/	.
8B-\	8g/	.
8G\	8b-/	.
8c\	8a/	.
8d\J)	8f#X/J	]]
=21	=21	=21
(4e-\	8g\L	pp
.	8a\	.
8d\L	8b-\	.
8B-\	8dd\	.
8c\	8ee-\	.
8d\J	8dd\J	.
=22	=22	=22
8e-\L	4g/)	>
8d\	.	.
8B-\	4r	.
8A\	.	.
8G\	4r	]]
8B-\J)	.	.
=23	=23	=23
!	!	!LO:DY:t=pf
(8A-X\L	2.r	p
8F\	.	.
8D\	.	.
8E-\	.	.
8D\	.	.
8C\J	.	.
=24	=24	=24
4BBn/	(>8a-X/L	.
.	8f/	.
4F\	8d/	.
.	8e-/	.
4A-X\	8d/	.
.	8c/J	.
=25	=25	=25
8G\L	2Bn/	.
8A-X\	.	.
8G\	.	.
8F\	.	.
8E-\	8c/L	.
8C\J)	8e-/J	.
=26	=26	=26
!!LO:LB:g=original
8C#X\L	8b-/L	.
8En\	8g/	.
8G\	8en/	.
8B-\	8g/	.
8G\	8e/	.
8E\J	8c#X/J)	.
=27	=27	=27
(<4D\	(>8d/L	p
.	8B-/	.
4C#X\	8G</	.
.	8B-</	.
4Cn\	8F#X</	.
.	8A</J	.
=28	=28	=28
8BB-\L	4G</)	.
8C\	.	.
8BB-\	4r<	.
8AA\	.	.
8GG\	4r<	.
8FF\J)	.	.
=29	=29	=29
(4EE-\	(>8G</L	p
.	8A</	.
4DD\	8B-</	.
.	8d</	.
8CC\L	8e-</	.
8DD\J	8d</J	.
=30	=30	=30
[2.GG\)	4G</)	.
.	(4.F#X<^/	fp
.	8D</	.
=31	=31	=31
2.GG\_	4Fn</	.
.	4.En<^/	.
.	8C</	.
=32	=32	=32
2.GG\]	4E-X</	.
.	4.D<^/	.
.	8AA</)	.
=33	=33	=33
(<[2.GG\	(4C</	pp
.	4BB-</	.
.	4D</	.
=34	=34	=34
!	!	!LO:DY:b=2
8GG\L]	8GG</)	ppp >
8AA\	8r<	.
8BB-\	4r<	.
8D\	.	.
!LO:TX:b:i:t=rit.	!	!
8E-\	4r<	.
8D\J	.	.
=35	=35	=35
2.GG;/)	2.r;	]
==	==	==
*-	*-	*-
!!!system-decoration: {(s1,s2)}
!!!RDF**kern: > = above
!!!RDF**kern: < = below
!!!ENC: Kamil Watkowski
!!!END: 2021-08-09
!!!YEC: Copyright 2022 Narodowy Instytut Fryderyka Chopina (https://polishscores.org)
!!!YEM: License CC-BY-4.0 (https://creativecommons.org/licenses/by/4.0)
